src/images/icon-globe.svg

<?xml version="1.0" encoding="UTF-8" standalone="no"?>
<svg width="44px" height="44px" viewBox="0 0 44 44" version="1.1" xmlns="http://www.w3.org/2000/svg" xmlns:xlink="http://www.w3.org/1999/xlink" xmlns:sketch="http://www.bohemiancoding.com/sketch/ns">
    <!-- Generator: Sketch 3.3.2 (12043) - http://www.bohemiancoding.com/sketch -->
    <title>icon-globe</title>
    <desc>Created with Sketch.</desc>
    <defs></defs>
    <g id="Page-1" stroke="none" stroke-width="1" fill="none" fill-rule="evenodd" sketch:type="MSPage">
        <g id="icon-globe" sketch:type="MSLayerGroup" transform="translate(1.000000, 1.000000)">
            <g id="Group" sketch:type="MSShapeGroup">
                <circle id="Oval" stroke="#3B5062" stroke-width="2" cx="21.2" cy="20.9" r="20.3"></circle>
                <path d="M0.9,20.9 L41.5,20.9" id="Shape" stroke="#3B5062" stroke-width="2"></path>
                <path d="M21.2,0.6 L21.2,41.3" id="Shape" stroke="#3B5062" stroke-width="2"></path>
                <g transform="translate(10.000000, 0.000000)" id="Shape" stroke="#3B5062" stroke-width="2">
                    <path d="M11.1,41.1 C4.6,36.7 0.3,29.2 0.3,20.8 C0.3,12.4 4.5,5 11,0.6"></path>
                    <path d="M11.3,41.1 C17.8,36.7 22.1,29.2 22.1,20.8 C22.1,12.4 17.9,5 11.5,0.6"></path>
                </g>
                <path d="M34.4,5.6 C31.4,9.6 26.6,12.1 21.3,12.1 C15.9,12.1 11.1,9.5 8.1,5.5" id="Shape" stroke="#3B5062" stroke-width="2"></path>
                <path d="M34.4,37 C31.4,33 26.6,30.5 21.3,30.5 C15.9,30.5 11.1,33.1 8.1,37.1" id="Shape" stroke="#3B5062" stroke-width="2"></path>
                <g transform="translate(20.000000, 22.000000)">
                    <circle id="Oval" stroke="#3B5062" stroke-width="2" fill="#FFFFFF" cx="10.3" cy="9.9" r="9.4"></circle>
                    <path d="M4.3,12.1 C4.3,14.6 5.4,16.9 7.1,18.5 C8,18.8 9,18.9 10,18.9 C15.2,18.9 19.4,14.7 19.4,9.5 C19.4,7.6 18.8,5.9 17.9,4.4 C16.5,3.6 15,3.1 13.3,3.1 C8.3,3.2 4.3,7.2 4.3,12.1 L4.3,12.1 Z" id="Shape" fill="#D0D7DD"></path>
                    <circle id="Oval" stroke="#3B5062" stroke-width="2" cx="10.3" cy="9.9" r="9.4"></circle>
                </g>
                <path d="M29.9075,36.2766 C29.3234971,36.2285998 28.8495018,36.1386007 28.4855,36.0066 C28.1214982,35.8745993 27.8515009,35.7646004 27.6755,35.6766 L28.1915,34.2966 C28.4715014,34.4326007 28.8054981,34.5565994 29.1935,34.6686 C29.5815019,34.7806006 29.9914978,34.8366 30.4235,34.8366 C30.9115024,34.8366 31.2454991,34.7706007 31.4255,34.6386 C31.6055009,34.5065993 31.6955,34.3206012 31.6955,34.0806 C31.6955,33.9285992 31.6595004,33.7986005 31.5875,33.6906 C31.5154996,33.5825995 31.4115007,33.4846004 31.2755,33.3966 C31.1394993,33.3085996 30.967501,33.2226004 30.7595,33.1386 C30.551499,33.0545996 30.3115014,32.9646005 30.0395,32.8686 C29.7754987,32.7725995 29.5175013,32.6666006 29.2655,32.5506 C29.0134987,32.4345994 28.785501,32.2926008 28.5815,32.1246 C28.377499,31.9565992 28.2135006,31.7506012 28.0895,31.5066 C27.9654994,31.2625988 27.9035,30.9686017 27.9035,30.6246 C27.9035,30.3605987 27.9414996,30.1066012 28.0175,29.8626 C28.0935004,29.6185988 28.2114992,29.396601 28.3715,29.1966 C28.5315008,28.996599 28.7394987,28.8266007 28.9955,28.6866 C29.2515013,28.5465993 29.5554982,28.4446003 29.9075,28.3806 L29.9075,27.0846 L31.4195,27.0846 L31.4195,28.3326 C31.8355021,28.3726002 32.1934985,28.4325996 32.4935,28.5126 C32.7935015,28.5926004 33.0314991,28.6725996 33.2075,28.7526 L32.8355,30.1926 C32.5714987,30.0805994 32.2655017,29.9846004 31.9175,29.9046 C31.5694983,29.8245996 31.2035019,29.7846 30.8195,29.7846 C30.4354981,29.7846 30.1595008,29.8485994 29.9915,29.9766 C29.8234992,30.1046006 29.7395,30.272599 29.7395,30.4806 C29.7395,30.6086006 29.7654997,30.7185995 29.8175,30.8106 C29.8695003,30.9026005 29.9514994,30.9845996 30.0635,31.0566 C30.1755006,31.1286004 30.3134992,31.1985997 30.4775,31.2666 C30.6415008,31.3346003 30.8394988,31.4085996 31.0715,31.4886 C31.4235018,31.6166006 31.7494985,31.7565992 32.0495,31.9086 C32.3495015,32.0606008 32.6094989,32.234599 32.8295,32.4306 C33.0495011,32.626601 33.2214994,32.8565987 33.3455,33.1206 C33.4695006,33.3846013 33.5315,33.6925982 33.5315,34.0446 C33.5315,34.2846012 33.4955004,34.5225988 33.4235,34.7586 C33.3514996,34.9946012 33.2315008,35.212599 33.0635,35.4126 C32.8954992,35.612601 32.6775013,35.7845993 32.4095,35.9286 C32.1414987,36.0726007 31.811502,36.1765997 31.4195,36.2406 L31.4195,37.7046 L29.9075,37.7046 L29.9075,36.2766 Z" id="$" fill="#3B5062"></path>
            </g>
        </g>
    </g>
</svg>

<svg width="44" height="44" viewBox="0 0 44 44" xmlns="http://www.w3.org/2000/svg"><title>icon-globe</title><g transform="translate(1 1)" fill="none" fill-rule="evenodd"><circle stroke="#3B5062" stroke-width="2" cx="21.2" cy="20.9" r="20.3"/><path d="M.9 20.9h40.6M21.2.6v40.7m-.1-.2c-6.5-4.4-10.8-11.9-10.8-20.3S14.5 5 21 .6m.3 40.5c6.5-4.4 10.8-11.9 10.8-20.3S27.9 5 21.5.6" stroke="#3B5062" stroke-width="2"/><path d="M34.4 5.6c-3 4-7.8 6.5-13.1 6.5-5.4 0-10.2-2.6-13.2-6.6M34.4 37c-3-4-7.8-6.5-13.1-6.5-5.4 0-10.2 2.6-13.2 6.6" stroke="#3B5062" stroke-width="2"/><g transform="translate(20 22)"><circle stroke="#3B5062" stroke-width="2" fill="#FFF" cx="10.3" cy="9.9" r="9.4"/><path d="M4.3 12.1c0 2.5 1.1 4.8 2.8 6.4.9.3 1.9.4 2.9.4 5.2 0 9.4-4.2 9.4-9.4 0-1.9-.6-3.6-1.5-5.1-1.4-.8-2.9-1.3-4.6-1.3-5 .1-9 4.1-9 9z" fill="#D0D7DD"/><circle stroke="#3B5062" stroke-width="2" cx="10.3" cy="9.9" r="9.4"/></g><path d="M29.907 36.277c-.584-.048-1.057-.138-1.422-.27a8.228 8.228 0 0 1-.81-.33l.517-1.38c.28.136.613.26 1.002.372.388.112.797.168 1.23.168.488 0 .821-.066 1.002-.198a.652.652 0 0 0 .27-.558.687.687 0 0 0-.109-.39 1.056 1.056 0 0 0-.311-.294 3.087 3.087 0 0 0-.517-.258 17.475 17.475 0 0 0-.72-.27 10.126 10.126 0 0 1-.774-.318 3.126 3.126 0 0 1-.684-.426 1.913 1.913 0 0 1-.491-.618c-.125-.244-.186-.538-.186-.882 0-.264.037-.518.113-.762a2.02 2.02 0 0 1 .355-.666c.16-.2.367-.37.623-.51.257-.14.56-.242.912-.306v-1.296h1.512v1.248c.417.04.774.1 1.074.18.3.08.538.16.715.24l-.372 1.44a5.536 5.536 0 0 0-.918-.288 4.888 4.888 0 0 0-1.098-.12c-.385 0-.66.064-.829.192a.604.604 0 0 0-.252.504.66.66 0 0 0 .078.33.721.721 0 0 0 .247.246c.112.072.25.142.413.21.165.068.362.142.595.222.352.128.677.268.978.42.3.152.56.326.78.522.22.196.391.426.516.69.124.264.186.572.186.924 0 .24-.036.478-.108.714a1.85 1.85 0 0 1-.36.654 2.2 2.2 0 0 1-.654.516 3.17 3.17 0 0 1-.99.312v1.464h-1.513v-1.428z" fill="#3B5062"/></g></svg>
